X:1
T:Nu Grönskar Det - andrastämma
M:4/4
L:1/4
Z: Contributed 2017-04-03 11:23:59 by Sven sven.midgren@eslov.se
K:D
z |D D D D | A,A,A,A, | G,G,A,A, | D3 z|
D D D D | A,A,A,A, | G,G,A,A, | D3 z|
F D D D | G D D D | D D D D | A,3 z |
D D D D | A,A,A,A, | G,G,A,A, | D3 ||

